assets/svg/solitude/grooming_yes-16gYUF8.svg

<?xml version="1.0" encoding="UTF-8"?>
<svg width="72px" height="72px" viewBox="0 0 72 72" version="1.1" xmlns="http://www.w3.org/2000/svg" xmlns:xlink="http://www.w3.org/1999/xlink">
    <!-- Generator: Sketch 58 (84663) - https://sketch.com -->
    <title>icons alone</title>
    <desc>Created with Sketch.</desc>
    <g id="icons-alone" stroke="none" stroke-width="1" fill="none" fill-rule="evenodd">
        <g id="Grooming" transform="translate(16.000000, 23.000000)" fill="#322a2e" stroke="#322a2e" stroke-width="0.3">
            <g id="Group-12">
                <path d="M25.7539,-0.0001 C26.4339,-0.0001 27.0269,0.4589 27.1979,1.1169 L27.1979,1.1169 L29.7679,10.9829 C29.8329,11.1259 29.8709,11.2819 29.8879,11.4449 L29.8879,11.4449 L29.9139,11.5459 L29.8979,11.5459 C29.8989,11.5649 29.9029,11.5819 29.9029,11.5999 L29.9029,11.5999 L29.9029,17.1149 C30.7099,17.8289 31.2629,18.8059 31.4299,19.9189 L31.4299,19.9189 L33.1109,19.9189 C33.1079,19.6009 33.1289,19.2809 33.1999,18.9629 L33.1999,18.9629 L34.2579,14.1809 L35.7229,14.5049 L34.6649,19.2879 C34.4319,20.3379 34.8409,21.4299 35.7069,22.0689 L35.7069,22.0689 L39.0869,24.5649 L38.1959,25.7719 L34.8159,23.2759 C34.1629,22.7949 33.6819,22.1449 33.3969,21.4189 L33.3969,21.4189 L31.4189,21.4189 C31.0329,23.6159 29.1219,25.2949 26.8159,25.2949 L26.8159,25.2949 L4.6849,25.2949 C2.1019,25.2949 -0.0001,23.1929 -0.0001,20.6099 C-0.0001,18.2409 1.7749,16.2979 4.0609,15.9889 L4.0609,15.9889 L4.0609,13.3129 C4.0609,11.5389 5.5039,10.0959 7.2779,10.0959 L7.2779,10.0959 L9.7749,10.0959 L9.7749,1.7499 C9.7749,0.7849 10.5609,-0.0001 11.5249,-0.0001 L11.5249,-0.0001 Z M26.8159,17.4259 L4.6849,17.4259 C2.9289,17.4259 1.4999,18.8549 1.4999,20.6099 C1.4999,22.3659 2.9289,23.7949 4.6849,23.7949 L4.6849,23.7949 L26.8159,23.7949 C28.5719,23.7949 29.9999,22.3659 29.9999,20.6099 C29.9999,18.8549 28.5719,17.4259 26.8159,17.4259 L26.8159,17.4259 Z M5.6069,18.349 C6.8089,18.349 7.7869,19.327 7.7869,20.529 C7.7869,21.731 6.8089,22.709 5.6069,22.709 C4.4049,22.709 3.4269,21.731 3.4269,20.529 C3.4269,19.327 4.4049,18.349 5.6069,18.349 Z M12.3394,18.349 C13.5414,18.349 14.5194,19.327 14.5194,20.529 C14.5194,21.731 13.5414,22.709 12.3394,22.709 C11.1374,22.709 10.1594,21.731 10.1594,20.529 C10.1594,19.327 11.1374,18.349 12.3394,18.349 Z M19.0718,18.349 C20.2738,18.349 21.2518,19.327 21.2518,20.529 C21.2518,21.731 20.2738,22.709 19.0718,22.709 C17.8698,22.709 16.8918,21.731 16.8918,20.529 C16.8918,19.327 17.8698,18.349 19.0718,18.349 Z M25.8042,18.349 C27.0062,18.349 27.9842,19.327 27.9842,20.529 C27.9842,21.731 27.0062,22.709 25.8042,22.709 C24.6022,22.709 23.6242,21.731 23.6242,20.529 C23.6242,19.327 24.6022,18.349 25.8042,18.349 Z M5.6069,19.849 C5.2319,19.849 4.9269,20.154 4.9269,20.529 C4.9269,20.904 5.2319,21.209 5.6069,21.209 C5.9819,21.209 6.2869,20.904 6.2869,20.529 C6.2869,20.154 5.9819,19.849 5.6069,19.849 Z M12.3394,19.849 C11.9644,19.849 11.6594,20.154 11.6594,20.529 C11.6594,20.904 11.9644,21.209 12.3394,21.209 C12.7144,21.209 13.0194,20.904 13.0194,20.529 C13.0194,20.154 12.7144,19.849 12.3394,19.849 Z M19.0718,19.849 C18.6968,19.849 18.3918,20.154 18.3918,20.529 C18.3918,20.904 18.6968,21.209 19.0718,21.209 C19.4468,21.209 19.7518,20.904 19.7518,20.529 C19.7518,20.154 19.4468,19.849 19.0718,19.849 Z M25.8042,19.849 C25.4292,19.849 25.1242,20.154 25.1242,20.529 C25.1242,20.904 25.4292,21.209 25.8042,21.209 C26.1792,21.209 26.4842,20.904 26.4842,20.529 C26.4842,20.154 26.1792,19.849 25.8042,19.849 Z M7.2779,11.5959 C6.3319,11.5959 5.5609,12.3659 5.5609,13.3129 L5.5609,13.3129 L5.5609,15.9259 L26.8159,15.9259 C27.3759,15.9259 27.9049,16.0409 28.4029,16.2219 L28.4029,16.2219 L28.4029,11.5999 Z M16.7169,1.4979 L11.5249,1.4999 C11.3879,1.4999 11.2749,1.6119 11.2749,1.7499 L11.2749,1.7499 L11.2749,10.0459 L16.7169,10.0459 L16.7169,1.4979 Z M25.7469,1.4939 L18.2169,1.4969 L18.2169,10.0459 L27.9739,10.0459 L25.7469,1.4939 Z" id="Combined-Shape"></path>
            </g>
        </g>
    </g>
</svg>

<svg height="72" viewBox="0 0 72 72" width="72" xmlns="http://www.w3.org/2000/svg"><path d="m25.7539-.0001c.68 0 1.273.459 1.444 1.117l2.57 9.866c.065.143.103.299.12.462l.026.101h-.016c.001.019.005.036.005.054v5.515c.807.714 1.36 1.691 1.527 2.804h1.681c-.003-.318.018-.638.089-.956l1.058-4.782 1.465.324-1.058 4.783c-.233 1.05.176 2.142 1.042 2.781l3.38 2.496-.891 1.207-3.38-2.496c-.653-.481-1.134-1.131-1.419-1.857h-1.978c-.386 2.197-2.297 3.876-4.603 3.876h-22.131c-2.583 0-4.685-2.102-4.685-4.685 0-2.369 1.775-4.312 4.061-4.621v-2.676c0-1.774 1.443-3.217 3.217-3.217h2.497v-8.346c0-.965.786-1.75 1.75-1.75zm1.062 17.426h-22.131c-1.756 0-3.185 1.429-3.185 3.184 0 1.756 1.429 3.185 3.185 3.185h22.131c1.756 0 3.184-1.429 3.184-3.185 0-1.755-1.428-3.184-3.184-3.184zm-21.209.9231c1.202 0 2.18.978 2.18 2.18s-.978 2.18-2.18 2.18-2.18-.978-2.18-2.18.978-2.18 2.18-2.18zm6.7325 0c1.202 0 2.18.978 2.18 2.18s-.978 2.18-2.18 2.18-2.18-.978-2.18-2.18.978-2.18 2.18-2.18zm6.7324 0c1.202 0 2.18.978 2.18 2.18s-.978 2.18-2.18 2.18-2.18-.978-2.18-2.18.978-2.18 2.18-2.18zm6.7324 0c1.202 0 2.18.978 2.18 2.18s-.978 2.18-2.18 2.18-2.18-.978-2.18-2.18.978-2.18 2.18-2.18zm-20.1973 1.5c-.375 0-.68.305-.68.68s.305.68.68.68.68-.305.68-.68-.305-.68-.68-.68zm6.7325 0c-.375 0-.68.305-.68.68s.305.68.68.68.68-.305.68-.68-.305-.68-.68-.68zm6.7324 0c-.375 0-.68.305-.68.68s.305.68.68.68.68-.305.68-.68-.305-.68-.68-.68zm6.7324 0c-.375 0-.68.305-.68.68s.305.68.68.68.68-.305.68-.68-.305-.68-.68-.68zm-18.5263-8.2531c-.946 0-1.717.77-1.717 1.717v2.613h21.255c.56 0 1.089.115 1.587.296v-4.622zm9.439-10.098-5.192.002c-.137 0-.25.112-.25.25v8.296h5.442zm9.03-.004-7.53.003v8.549h9.757z" fill="#322a2e" fill-rule="evenodd" stroke="#322a2e" stroke-width=".3" transform="translate(16 23)"/></svg>
